packages/assets/static/images/icons/globe-simple-x.svg

<svg width="24" height="24" viewBox="0 0 24 24" xmlns="http://www.w3.org/2000/svg" fill="currentColor" aria-hidden="true"> <path d="M21.0459 16.5464L19.5937 18.0005L21.0487 19.4546C21.1533 19.5592 21.2364 19.6834 21.293 19.8202C21.3496 19.9569 21.3788 20.1034 21.3788 20.2514C21.3788 20.3994 21.3496 20.546 21.293 20.6827C21.2364 20.8194 21.1533 20.9437 21.0487 21.0483C20.944 21.153 20.8198 21.236 20.6831 21.2926C20.5464 21.3492 20.3998 21.3784 20.2518 21.3784C20.1038 21.3784 19.9573 21.3492 19.8206 21.2926C19.6838 21.236 19.5596 21.153 19.4549 21.0483L17.9999 19.5942L16.5459 21.0492C16.3345 21.2606 16.0479 21.3793 15.749 21.3793C15.4501 21.3793 15.1635 21.2606 14.9521 21.0492C14.7408 20.8379 14.6221 20.5513 14.6221 20.2524C14.6221 19.9535 14.7408 19.6668 14.9521 19.4555L16.4062 18.0005L14.9512 16.5464C14.7398 16.3351 14.6211 16.0484 14.6211 15.7496C14.6211 15.4507 14.7398 15.164 14.9512 14.9527C15.1625 14.7413 15.4492 14.6226 15.7481 14.6226C16.047 14.6226 16.3336 14.7413 16.5449 14.9527L17.9999 16.4067L19.454 14.9517C19.5587 14.8471 19.6829 14.7641 19.8196 14.7075C19.9563 14.6508 20.1029 14.6217 20.2509 14.6217C20.3989 14.6217 20.5454 14.6508 20.6821 14.7075C20.8189 14.7641 20.9431 14.8471 21.0478 14.9517C21.1524 15.0564 21.2354 15.1806 21.292 15.3174C21.3487 15.4541 21.3778 15.6006 21.3778 15.7486C21.3778 15.8966 21.3487 16.0432 21.292 16.1799C21.2354 16.3166 21.1524 16.4408 21.0478 16.5455L21.0459 16.5464ZM22.1249 12.0005C22.1249 12.2989 22.0064 12.585 21.7954 12.796C21.5845 13.007 21.2983 13.1255 20.9999 13.1255H9.42557C9.83526 17.7717 12.6721 20.0977 12.7068 20.1221C12.8891 20.2679 13.0215 20.4669 13.0857 20.6913C13.1498 20.9158 13.1426 21.1547 13.0649 21.3748C12.9872 21.595 12.843 21.7855 12.6522 21.92C12.4613 22.0545 12.2334 22.1263 11.9999 22.1255C9.99741 22.1255 8.03984 21.5317 6.37479 20.4191C4.70975 19.3066 3.412 17.7253 2.64566 15.8752C1.87933 14.0251 1.67882 11.9893 2.06949 10.0252C2.46017 8.06115 3.42448 6.25704 4.84049 4.84104C6.25649 3.42503 8.0606 2.46072 10.0247 2.07004C11.9887 1.67937 14.0245 1.87988 15.8746 2.64621C17.7247 3.41255 19.306 4.7103 20.4186 6.37534C21.5311 8.04039 22.1249 9.99796 22.1249 12.0005ZM14.8321 4.65424C15.9977 6.53325 16.685 8.66933 16.8337 10.8755H19.7934C19.5913 9.49212 19.0254 8.18723 18.1538 7.09418C17.2821 6.00114 16.1358 5.15914 14.8321 4.65424ZM11.0287 5.92831C10.1141 7.42907 9.56468 9.1236 9.42463 10.8755H14.5753C14.294 7.69737 12.8793 5.60487 12.0018 4.59424C11.6416 5.01163 11.3161 5.45781 11.0287 5.92831ZM4.20651 10.8755H7.16619C7.31492 8.66933 8.00216 6.53325 9.16776 4.65424C7.86405 5.15914 6.71778 6.00114 5.84611 7.09418C4.97444 8.18723 4.40863 9.49212 4.20651 10.8755ZM7.16619 13.1255H4.20651C4.40863 14.5089 4.97444 15.8138 5.84611 16.9068C6.71778 17.9998 7.86405 18.8419 9.16776 19.3467C8.00216 17.4677 7.31492 15.3317 7.16619 13.1255Z"/> </svg>

<svg viewBox="0 0 24 24" xmlns="http://www.w3.org/2000/svg" aria-hidden="true" fill="currentColor"><path d="M21.046 16.546 19.594 18l1.455 1.455a1.126 1.126 0 1 1-1.594 1.593L18 19.594l-1.454 1.455a1.127 1.127 0 1 1-1.594-1.593L16.406 18l-1.455-1.454a1.127 1.127 0 1 1 1.594-1.593L18 16.407l1.454-1.455a1.128 1.128 0 0 1 1.594 1.594zm1.079-4.545A1.125 1.125 0 0 1 21 13.126H9.426c.41 4.646 3.246 6.972 3.28 6.996A1.125 1.125 0 0 1 12 22.125a10.125 10.125 0 1 1 10.125-10.124m-7.293-7.347a13.5 13.5 0 0 1 2.002 6.222h2.96a7.9 7.9 0 0 0-4.962-6.222M11.03 5.928a11.2 11.2 0 0 0-1.604 4.948h5.15c-.281-3.179-1.696-5.271-2.573-6.282q-.541.628-.973 1.334m-6.822 4.948h2.96a13.5 13.5 0 0 1 2-6.222 7.9 7.9 0 0 0-4.96 6.222m2.96 2.25h-2.96a7.9 7.9 0 0 0 4.96 6.22 13.5 13.5 0 0 1-2-6.22"/></svg>
